actions/scalable/view-bank.svg

<svg height="22" width="22" xmlns="http://www.w3.org/2000/svg" xmlns:sodipodi="http://sodipodi.sourceforge.net/DTD/sodipodi-0.dtd" xmlns:inkscape="http://www.inkscape.org/namespaces/inkscape">
 <path d="m11 3.0059l-8 4.6191v0.375 1h1v9h-1v1h16v-1h-1v-9h1v-1-0.375l-8-4.6191zm0 1.1543l6.65 3.8398h-13.3l6.65-3.8398zm-6 4.8398h2v9h-2v-9zm3 0h6v9h-1v-4h-4v4h-1v-9zm7 0h2v9h-2v-9z" fill="#4d4d4d" transform="matrix(1 0 0 1 0 0)"/>
</svg>

<?xml version="1.0" encoding="UTF-8" standalone="no"?>
<!-- Created with Inkscape (http://www.inkscape.org/) -->

<svg
   xmlns:dc="http://purl.org/dc/elements/1.1/"
   xmlns:cc="http://creativecommons.org/ns#"
   xmlns:rdf="http://www.w3.org/1999/02/22-rdf-syntax-ns#"
   xmlns:svg="http://www.w3.org/2000/svg"
   xmlns="http://www.w3.org/2000/svg"
   xmlns:sodipodi="http://sodipodi.sourceforge.net/DTD/sodipodi-0.dtd"
   xmlns:inkscape="http://www.inkscape.org/namespaces/inkscape"
   width="22"
   height="22"
   id="svg3049"
   version="1.1"
   inkscape:version="0.48+devel r"
   sodipodi:docname="view-bank.svg"
   inkscape:export-filename="/home/uri/.kde/share/icons/NITRUX-KDE/16x16/actions/view-right-new.png"
   inkscape:export-xdpi="30"
   inkscape:export-ydpi="30">
  <defs
     id="defs3051" />
  <sodipodi:namedview
     id="base"
     pagecolor="#ffffff"
     bordercolor="#666666"
     borderopacity="1.0"
     inkscape:pageopacity="0.0"
     inkscape:pageshadow="2"
     inkscape:zoom="32"
     inkscape:cx="12.891071"
     inkscape:cy="12.251696"
     inkscape:document-units="px"
     inkscape:current-layer="layer1"
     showgrid="true"
     fit-margin-top="0"
     fit-margin-left="0"
     fit-margin-right="0"
     fit-margin-bottom="0"
     inkscape:window-width="1366"
     inkscape:window-height="669"
     inkscape:window-x="-4"
     inkscape:window-y="25"
     inkscape:window-maximized="1"
     inkscape:showpageshadow="false"
     borderlayer="true">
    <sodipodi:guide
       position="2.0000044,20.00003"
       orientation="18,0"
       id="guide4067" />
    <sodipodi:guide
       position="2.0000044,2.0000296"
       orientation="0,18"
       id="guide4069" />
    <sodipodi:guide
       position="20.000004,2.0000296"
       orientation="-18,0"
       id="guide4071" />
    <sodipodi:guide
       position="20.000004,20.00003"
       orientation="0,-18"
       id="guide4073" />
    <sodipodi:guide
       position="3.0000044,19.00003"
       orientation="16,0"
       id="guide4077" />
    <sodipodi:guide
       position="3.0000044,3.0000296"
       orientation="0,16"
       id="guide4079" />
    <sodipodi:guide
       position="19.000004,3.0000296"
       orientation="-16,0"
       id="guide4081" />
    <sodipodi:guide
       position="19.000004,19.00003"
       orientation="0,-16"
       id="guide4083" />
    <inkscape:grid
       type="xygrid"
       id="grid4085" />
    <sodipodi:guide
       position="3.0000044,19.00003"
       orientation="16,0"
       id="guide4169" />
    <sodipodi:guide
       position="3.0000044,3.0000296"
       orientation="0,8"
       id="guide4171" />
    <sodipodi:guide
       position="11.000004,3.0000296"
       orientation="-16,0"
       id="guide4173" />
    <sodipodi:guide
       position="11.000004,19.00003"
       orientation="0,-8"
       id="guide4175" />
  </sodipodi:namedview>
  <metadata
     id="metadata3054">
    <rdf:RDF>
      <cc:Work
         rdf:about="">
        <dc:format>image/svg+xml</dc:format>
        <dc:type
           rdf:resource="http://purl.org/dc/dcmitype/StillImage" />
        <dc:title />
      </cc:Work>
    </rdf:RDF>
  </metadata>
  <g
     inkscape:label="Capa 1"
     inkscape:groupmode="layer"
     id="layer1"
     transform="translate(-421.71429,-525.79074)">
    <path
       style="opacity:1;fill:#666666;fill-opacity:1;stroke:none;stroke-width:0.1;stroke-miterlimit:4;stroke-dasharray:none;stroke-opacity:1"
       d="M 11 3.0058594 L 3 7.625 L 3 8 L 3 9 L 4 9 L 4 18 L 3 18 L 3 19 L 19 19 L 19 18 L 18 18 L 18 9 L 19 9 L 19 8 L 19 7.625 L 11 3.0058594 z M 11 4.1601562 L 17.650391 8 L 4.3496094 8 L 11 4.1601562 z M 5 9 L 7 9 L 7 18 L 5 18 L 5 9 z M 8 9 L 14 9 L 14 18 L 13 18 L 13 14 L 9 14 L 9 18 L 8 18 L 8 9 z M 15 9 L 17 9 L 17 18 L 15 18 L 15 9 z "
       transform="translate(421.71429,525.79074)"
       id="rect4145" />
  </g>
</svg>
